X:1
T:Better Land, 77.77.77
T:Better Land, 77.77.77
T:William Fiske Sherwin, 1872
T:Public Domain Courtesy of the Cyber Hymnal™
C:William Fiske Sherwin, 1872
Z:Public Domain
Z:Courtesy of the Cyber Hymnal™
%%score ( 1 2 ) ( 3 4 )
L:1/8
Q:1/4=93
M:3/4
K:Ab
V:1 treble 
V:2 treble 
V:3 bass 
V:4 bass 
V:1
 [CE]>[CE] | [CE]3 [EA] [DG][CA] | [EB]4 E>E | [DB]3 [DB] [CA][EB] | [Ec]4 [=Ec]>[GB] | %5
 [FA]3 F [=DB][FA] | [EG]4 [EA]>[EA] | [EG]E [EG]2 [B,F]2 | [B,E]4 [Ec]>[Ed] | %9
 [Ae]3 [Ec] [EB][EA] | [DF]4 [FA]>[DF] | [CE]3 [CA] [DB][Ec] | [CA]4 |] %13
V:2
 x2 | x6 | x4 E>E | x6 | x6 | x3 F x2 | x6 | x E x4 | x6 | x6 | x6 | x6 | x4 |] %13
V:3
 [A,,A,]>[A,,A,] | [A,,A,]3 [C,E,] [B,,E,][A,,A,] | [E,G,]4 E,>E, | [E,G,]3 [E,G,] [E,A,][E,G,] | %4
 A,4 [C,G,]>[C,C] | [F,C]3 [F,A,] [B,,F,][B,,B,] | [E,B,]4 [A,,C]>[A,,C] | %7
 [B,,B,][B,,G,] [B,,B,]2 [B,,A,]2 | [E,G,]4 A,>[A,B,] | [A,C]3 [A,,A,] [B,,G,][C,A,] | %10
 [D,A,]4 [D,A,]>[D,A,] | [E,A,]3 [E,A,] [E,G,][E,G,] | [A,,A,]4 |] %13
V:4
 x2 | x6 | x4 E,>E, | x6 | A,4 x2 | x6 | x6 | x6 | x4 A,3/2 x/ | x6 | x6 | x6 | x4 |] %13

